X: 152	% 40
T: Whistling Rufus
S: Viola Ruth "Pioneer Western Folk Tunes" 1948 p.15 #2
R: reel, march
Z: 2019 John Chambers <jc:trillian.mit.edu>
M: 2/4
L: 1/16
K: G
V: 1 name="40"
(3(DEF) |\
G2(3ABc d2(ef) | g2g2 ed3 | G3A BAGB | d4- d2 (3(DEF) |\
G2(3(ABc) d2(ef) | g2g2 ed3 | a3b ageg | a4- a2 (3(DEF) |
G2(3(ABc) d2(ef) | g2g2ed3 | G3A BAGB | d6 d2 |\
gg2g g2e2 | dd2d d2c2 | B4 A4 | G6 B2 |:\
A2G2 d4 | d6 e2 | d2B2 F4 | F6 c2 |
B2A2 Me4 | e6 (ef) | (gfe2) B4 | B6 B2 |\
A2G2 Md4 | d6 e2 | "^^"d3B Mc4 | c6 c2 |\
B2G2 B4 | c2B2 E4 |1 F4 G4- | G6 B2 :|2 F2 G4- | G6 |]
